frontend/public/vector/checked.svg

<svg width='800px' height='800px' viewBox='0 0 24 24' version='1.1' xmlns='http://www.w3.org/2000/svg' xmlns:xlink='http://www.w3.org/1999/xlink'>
	<g stroke='none' stroke-width='1' fill='none' fill-rule='evenodd'>
		<g fill='currentColor' fill-rule='nonzero'>
			<path d='M18.25,3 C19.7687831,3 21,4.23121694 21,5.75 L21,18.25 C21,19.7687831 19.7687831,21 18.25,21 L5.75,21 C4.23121694,21 3,19.7687831 3,18.25 L3,5.75 C3,4.23121694 4.23121694,3 5.75,3 L18.25,3 Z M18.25,4.5 L5.75,4.5 C5.05964406,4.5 4.5,5.05964406 4.5,5.75 L4.5,18.25 C4.5,18.9403559 5.05964406,19.5 5.75,19.5 L18.25,19.5 C18.9403559,19.5 19.5,18.9403559 19.5,18.25 L19.5,5.75 C19.5,5.05964406 18.9403559,4.5 18.25,4.5 Z M10,14.4393398 L16.4696699,7.96966991 C16.7625631,7.6767767 17.2374369,7.6767767 17.5303301,7.96966991 C17.7965966,8.23593648 17.8208027,8.65260016 17.6029482,8.94621165 L17.5303301,9.03033009 L10.5303301,16.0303301 C10.2640635,16.2965966 9.84739984,16.3208027 9.55378835,16.1029482 L9.46966991,16.0303301 L6.46966991,13.0303301 C6.1767767,12.7374369 6.1767767,12.2625631 6.46966991,11.9696699 C6.73593648,11.7034034 7.15260016,11.6791973 7.44621165,11.8970518 L7.53033009,11.9696699 L10,14.4393398 L16.4696699,7.96966991 L10,14.4393398 Z'></path>
		</g>
	</g>
</svg>

<?xml version="1.0" encoding="UTF-8" standalone="no"?>
<svg width="64" height="64" viewBox="0 0 2 2" version="1.1" id="svg2" xmlns="http://www.w3.org/2000/svg" xmlns:svg="http://www.w3.org/2000/svg">
   <g stroke="none" stroke-width="1" fill="none" fill-rule="evenodd" id="g2">
      <g fill="currentColor" fill-rule="nonzero" id="g1" transform="matrix(0.10666666,0,0,0.10666666,-0.31999998,-0.31999998)">
         <path d="M 18.25,3 C 19.768783,3 21,4.2312169 21,5.75 v 12.5 C 21,19.768783 19.768783,21 18.25,21 H 5.75 C 4.2312169,21 3,19.768783 3,18.25 V 5.75 C 3,4.2312169 4.2312169,3 5.75,3 Z m 0,1.5 H 5.75 C 5.0596441,4.5 4.5,5.0596441 4.5,5.75 v 12.5 c 0,0.690356 0.5596441,1.25 1.25,1.25 h 12.5 c 0.690356,0 1.25,-0.559644 1.25,-1.25 V 5.75 C 19.5,5.0596441 18.940356,4.5 18.25,4.5 Z M 10,14.43934 16.46967,7.9696699 c 0.292893,-0.2928932 0.767767,-0.2928932 1.06066,0 0.266267,0.2662666 0.290473,0.6829303 0.07262,0.9765418 l -0.07262,0.084118 -7,7.0000003 c -0.266266,0.266267 -0.6829302,0.290473 -0.9765416,0.07262 l -0.084119,-0.07262 -3,-3 c -0.2928932,-0.292893 -0.2928932,-0.767767 0,-1.06066 0.2662666,-0.266267 0.6829303,-0.290473 0.9765418,-0.07262 L 7.5303301,11.96967 10,14.43934 16.46967,7.9696699 Z" id="path1" />
      </g>
   </g>
</svg>
